art/standard/gamepad/luna/lefttrigger.svg

<svg width="100px" height="100px" preserveAspectRatio="none" version="1.1" viewBox="0 0 100 100" xmlns="http://www.w3.org/2000/svg">
 <path d="m84.25 37.15v-6.4c-0.6-10.933-6.5833-17.083-17.95-18.45h-43.25c-5.241 1.5673-7.5577 6.234-6.95 14 2.3667 14.167 2.3667 28.933 0 44.3-0.8 4.5667 0.5 9.1833 3.9 13.85 3.4 3.1333 7.7833 5.1167 13.15 5.95 6.9348 1.0904 13.135 0.50703 18.6-1.75 5.4-2.4333 9.25-6.45 11.55-12.05 0.3-0.7 0.61667-1.4 0.95-2.1 3.382-6.4339 7.132-10.901 11.25-13.4 4.146-2.4686 6.546-5.152 7.2-8.05 0.01133-0.05 0.01133-0.1 0-0.15 0.7-2.6667 1.15-5.4 1.35-8.2 0.2-2.4333 0.26667-4.95 0.2-7.55" fill="#313131"/>
 <path d="m59.55 46.55c1.346-6.3988 1.6129-12.938 1.8764-19.449 0.1796-2.5657 0.64357-6.1461-2.1945-7.4304-2.5023-1.456-5.4053-0.84323-8.1449-0.97053h-24.587c-2.6233 0.43863-4.6154 2.9459-3.8742 5.6117 0.92399 8.4012 2.2668 16.807 1.8484 25.288-0.08528 7.0639-0.88663 14.085-1.7602 21.085-0.46112 3.4777-0.21302 7.5394 2.7762 9.8945 4.6616 3.9607 11.838 4.1581 17.003 1.0879 2.7762-2.2516 4.5506-5.4762 6.6189-8.342 5.6468-7.9427 8.6378-17.286 10.438-26.775z" fill="#4f4f4f" stop-color="#000000" stroke="#626262" stroke-linecap="round" stroke-linejoin="round" stroke-width="4" style="-inkscape-stroke:none;font-variation-settings:normal"/>
 <path d="m41.6 40.35v-3h-6.1v-11.85h-3.25v14.85h9.35m12.25-11.95v-2.9h-11.75v2.9h4.25v11.95h3.25v-11.95h4.25z" fill="#999"/>
 <path d="m51.75 88.675q8.1-3.675 11.55-12.075 0.45-1.05 0.95-2.1 5.073-9.6508 11.275-13.375 6.1939-3.7279 7.175-8.075 0.016992-0.075 0.025-0.15 1.025-4 1.325-8.2 0.3-3.65 0.2-7.55v-6.4q-0.9-16.4-17.95-18.45h-43.25q-7.8615 2.351-6.95 14 3.55 21.25 0 44.3-1.2 6.85 3.9 13.85 5.1 4.7 13.15 5.95 10.402 1.6355 18.6-1.725z" fill="none" stroke="#1B1B1B" stroke-linecap="round" stroke-linejoin="round" stroke-width="5"/>
</svg>

<svg xmlns="http://www.w3.org/2000/svg" version="1.1" xmlns:xlink="http://www.w3.org/1999/xlink" preserveAspectRatio="none" x="0px" y="0px" width="100px" height="100px" viewBox="0 0 100 100">
<defs/>

<g id="Luna">
<g>
<g>
<g>
<path fill="#313131" stroke="none" d="
M 84.25 37.15
L 84.25 30.75
Q 83.35 14.35 66.3 12.3
L 23.05 12.3
Q 15.1884765625 14.6509765625 16.1 26.3 19.65 47.55 16.1 70.6 14.9 77.45 20 84.45 25.1 89.15 33.15 90.4 43.5521484375 92.035546875 51.75 88.65 59.85 85 63.3 76.6 63.75 75.55 64.25 74.5 69.323046875 64.84921875 75.5 61.1 81.7189453125 57.3970703125 82.7 53.05 82.7169921875 52.975 82.7 52.9 83.75 48.9 84.05 44.7 84.35 41.05 84.25 37.15
M 60.6 39.85
Q 60.2 43.2 59.55 46.55 58.9 49.9 58.05 53.2 56.9 57.75 55.15 62.2 53.4 66.55 50.9 70.55 49.15 73.35 47.25 76.05 45.75 78.2 44.1 80.2 42.45 82.15 39.95 82.85 37.75 83.6 35.45 83.75 30.95 84.05 27.05 81.7 22.45 78.95 22.55 73.65 22.65 70.25 23.15 66.9 23.65 63.3 23.95 59.7 24.25 55.9 24.4 52.1 24.55 48.1 24.5 44.1 24.5 41.55 24.25 39.05 23.8 34.15 23.2 29.25 22.85 26.45 22.55 23.6 22.35 22 23.3 20.55 24.05 19.5 26.5 18.7
L 56.4 18.7
Q 60.3453125 19.621875 61.05 21.4 61.753515625 23.18359375 61.5 26 61.298828125 28.80546875 61.15 33 61.05 36.4 60.6 39.85 Z"/>

<path fill="#4F4F4F" stroke="none" d="
M 59.55 46.55
Q 60.2 43.2 60.6 39.85 61.05 36.4 61.15 33 61.298828125 28.80546875 61.5 26 61.753515625 23.18359375 61.05 21.4 60.3453125 19.621875 56.4 18.7
L 26.5 18.7
Q 24.05 19.5 23.3 20.55 22.35 22 22.55 23.6 22.85 26.45 23.2 29.25 23.8 34.15 24.25 39.05 24.5 41.55 24.5 44.1 24.55 48.1 24.4 52.1 24.25 55.9 23.95 59.7 23.65 63.3 23.15 66.9 22.65 70.25 22.55 73.65 22.45 78.95 27.05 81.7 30.95 84.05 35.45 83.75 37.75 83.6 39.95 82.85 42.45 82.15 44.1 80.2 45.75 78.2 47.25 76.05 49.15 73.35 50.9 70.55 53.4 66.55 55.15 62.2 56.9 57.75 58.05 53.2 58.9 49.9 59.55 46.55
M 53.85 25.5
L 53.85 28.4 49.6 28.4 49.6 40.35 46.35 40.35 46.35 28.4 42.1 28.4 42.1 25.5 53.85 25.5
M 41.6 37.35
L 41.6 40.35 32.25 40.35 32.25 25.5 35.5 25.5 35.5 37.35 41.6 37.35 Z"/>

<path fill="#999999" stroke="none" d="
M 41.6 40.35
L 41.6 37.35 35.5 37.35 35.5 25.5 32.25 25.5 32.25 40.35 41.6 40.35
M 53.85 28.4
L 53.85 25.5 42.1 25.5 42.1 28.4 46.35 28.4 46.35 40.35 49.6 40.35 49.6 28.4 53.85 28.4 Z"/>
</g>
</g>

<g>
<path stroke="#626262" stroke-width="4" stroke-linejoin="round" stroke-linecap="round" fill="none" d="
M 56.4 18.7
Q 60.3453125 19.621875 61.05 21.4 61.753515625 23.18359375 61.525 26 61.298828125 28.80546875 61.15 33 61.05 36.4 60.6 39.85 60.2 43.2 59.55 46.55 58.9 49.9 58.05 53.2 56.9 57.75 55.15 62.2 53.4 66.55 50.9 70.55 49.15 73.35 47.25 76.05 45.75 78.2 44.1 80.2 42.45 82.15 39.95 82.85 37.75 83.6 35.45 83.75 30.95 84.05 27.05 81.7 22.45 78.95 22.55 73.65 22.65 70.25 23.15 66.9 23.65 63.3 23.95 59.7 24.25 55.9 24.4 52.1 24.55 48.1 24.5 44.1 24.5 41.55 24.25 39.05 23.8 34.15 23.2 29.25 22.85 26.45 22.55 23.6 22.35 22 23.3 20.55 24.05 19.5 26.5 18.7
L 56.4 18.7 Z"/>
</g>

<g>
<path stroke="#1B1B1B" stroke-width="5" stroke-linejoin="round" stroke-linecap="round" fill="none" d="
M 51.75 88.675
Q 59.85 85 63.3 76.6 63.75 75.55 64.25 74.5 69.323046875 64.84921875 75.525 61.125 81.7189453125 57.3970703125 82.7 53.05 82.7169921875 52.975 82.725 52.9 83.75 48.9 84.05 44.7 84.35 41.05 84.25 37.15
L 84.25 30.75
Q 83.35 14.35 66.3 12.3
L 23.05 12.3
Q 15.1884765625 14.6509765625 16.1 26.3 19.65 47.55 16.1 70.6 14.9 77.45 20 84.45 25.1 89.15 33.15 90.4 43.5521484375 92.035546875 51.75 88.675 Z"/>
</g>
</g>
</g>
</svg>
